symbols/web/emoji_transportation/materialsymbolssharp/emoji_transportation_wght600gradN25fill1_48px.svg

<svg xmlns="http://www.w3.org/2000/svg" height="48" width="48"><path d="M20.15 44.55v-13l3.3-9.7H41.2l3.3 9.65v13.05h-4.2v-3.4h-16v3.4Zm3.2-14.4H41.3l-1.9-5.75H25.25Zm2.7 7.2q.8 0 1.35-.575t.55-1.375q0-.75-.55-1.325t-1.35-.575q-.8 0-1.375.575T24.1 35.4q0 .8.575 1.375t1.375.575Zm12.55 0q.8 0 1.35-.575t.55-1.375q0-.75-.55-1.325T38.6 33.5q-.8 0-1.375.575T36.65 35.4q0 .8.575 1.375t1.375.575ZM12.05 28.8v-3.9h3.9v3.9ZM22.2 16.05v-3.9h3.9v3.9Zm-10.15 20.4v-3.9h3.9v3.9Zm0 7.65v-3.9h3.9v3.9Zm-8.5 0V16.4H13.7V3.65h20.95v13.7H30.8V7.5H17.55v12.75H7.4V44.1Z"/></svg>

<svg xmlns="http://www.w3.org/2000/svg" height="48" width="48"><path d="M20.15 44.55V31.55L23.45 21.85H41.2L44.5 31.5V44.55H40.3V41.15H24.3V44.55ZM23.35 30.15H41.3L39.4 24.4H25.25ZM26.05 37.35Q26.85 37.35 27.4 36.775Q27.95 36.2 27.95 35.4Q27.95 34.65 27.4 34.075Q26.85 33.5 26.05 33.5Q25.25 33.5 24.675 34.075Q24.1 34.65 24.1 35.4Q24.1 36.2 24.675 36.775Q25.25 37.35 26.05 37.35ZM38.6 37.35Q39.4 37.35 39.95 36.775Q40.5 36.2 40.5 35.4Q40.5 34.65 39.95 34.075Q39.4 33.5 38.6 33.5Q37.8 33.5 37.225 34.075Q36.65 34.65 36.65 35.4Q36.65 36.2 37.225 36.775Q37.8 37.35 38.6 37.35ZM12.05 28.8V24.9H15.95V28.8ZM22.2 16.05V12.15H26.1V16.05ZM12.05 36.45V32.55H15.95V36.45ZM12.05 44.1V40.2H15.95V44.1ZM3.55 44.1V16.4H13.7V3.65H34.65V17.35H30.8V7.5H17.55V20.25H7.4V44.1Z"/></svg>
